assets/features/payment-flow/BRI.svg

<svg width="200" height="200" viewBox="0 0 200 200" fill="none" xmlns="http://www.w3.org/2000/svg">
<rect width="200" height="200" rx="40" fill="#1F4396"/>
<path fill-rule="evenodd" clip-rule="evenodd" d="M50 64.3395C50 56.4196 56.4197 50 64.3386 50H135.661C143.582 50 150 56.4196 150 64.3395V135.662C150 143.58 143.582 150 135.661 150H64.3386C56.4197 150 50 143.58 50 135.662V64.3395ZM108.44 100.188L140.193 132.554L140.178 67.4692C140.178 63.2455 136.754 59.8227 132.53 59.8227H121.453C127.852 61.2814 134.465 73.3612 125.355 82.7516L108.44 100.188ZM95.1243 59.8227H102.496C113.99 59.8227 122.503 71.4689 115.151 78.8314L93.8219 100.188L133.031 140.186L91.6533 140.179C100.545 140.179 106.157 125.222 96.6417 115.316L82.1116 100.188L99.0277 82.7516C108.136 73.3612 101.525 61.2814 95.1243 59.8227ZM59.7983 132.554C59.7983 136.778 63.2224 140.202 67.4449 140.202H74.4338C84.2815 140.202 94.6737 128.66 85.7989 119.364L67.4944 100.188L88.8231 78.8314C96.1741 71.4689 87.6626 59.8227 76.1686 59.8227H67.4449C63.2224 59.8227 59.7983 63.2455 59.7983 67.4692V132.554Z" fill="white"/>
</svg>

<svg xmlns="http://www.w3.org/2000/svg" width="200" height="200" fill="none" viewBox="0 0 200 200"><rect width="200" height="200" fill="#1f4396" rx="40"/><path fill="#fff" fill-rule="evenodd" d="M50 64.34C50 56.42 56.42 50 64.339 50h71.322C143.582 50 150 56.42 150 64.34v71.322c0 7.918-6.418 14.338-14.339 14.338H64.339C56.419 150 50 143.58 50 135.662zm58.44 35.848 31.753 32.366-.015-65.085a7.647 7.647 0 0 0-7.648-7.646h-11.077c6.399 1.458 13.012 13.538 3.902 22.929zM95.124 59.823h7.372c11.494 0 20.007 11.646 12.655 19.008l-21.33 21.357 39.21 39.998-41.378-.007c8.892 0 14.504-14.957 4.989-24.863l-14.53-15.128 16.916-17.436c9.108-9.39 2.497-21.47-3.904-22.93m-35.326 72.731a7.65 7.65 0 0 0 7.647 7.648h6.989c9.847 0 20.24-11.542 11.365-20.838l-18.305-19.176 21.33-21.357c7.35-7.362-1.161-19.008-12.655-19.008h-8.724a7.647 7.647 0 0 0-7.647 7.646z" clip-rule="evenodd"/></svg>
